X: 36198
T: Scottish Urbaine
R: barndance
M: 4/4
K: Dmixolydian
|:Addc d2de|fdfg a2fa|gfed c2cd|eged c2A2|
Addc d2de|fdfg a2fa|gfed c2cd|egec d4:|
|:f3 g3 a2-|abag a2fa|gfed c2cd|eged c2A2|
f3 g3 a2-|abag a2fa|gfed c2cd|egec d4:|

